usr/share/icons/biglinux-icons-material/16/actions/align-on-canvas.svg

<svg width="16" height="16" version="1.1" viewBox="0 0 16 16" xmlns="http://www.w3.org/2000/svg">
 <g id="layercompo" fill="#dedede" stroke-linecap="round" stroke-linejoin="round">
  <path d="m2 1c-0.554 0-1 0.446-1 1v1h1v-1h1v-1h-1zm11 0v1h1v1h1v-1c0-0.554-0.446-1-1-1h-1zm-12 12v1c0 0.554 0.446 1 1 1h1v-1h-1v-1h-1zm13 0v1h-1v1h1c0.554 0 1-0.446 1-1v-1h-1z" stroke-width="4" style="paint-order:stroke fill markers"/>
  <rect x="4" y="1" width="2" height="1" rx="0" ry="0" stroke-width="4" style="paint-order:stroke fill markers"/>
  <rect x="7" y="1" width="2" height="1" rx="0" ry="0" stroke-width="4" style="paint-order:stroke fill markers"/>
  <rect x="10" y="1" width="2" height="1" rx="0" ry="0" stroke-width="4" style="paint-order:stroke fill markers"/>
  <rect x="4" y="14" width="2" height="1" rx="0" ry="0" stroke-width="4" style="paint-order:stroke fill markers"/>
  <rect x="7" y="14" width="2" height="1" rx="0" ry="0" stroke-width="4" style="paint-order:stroke fill markers"/>
  <rect x="10" y="14" width="2" height="1" rx="0" ry="0" stroke-width="4" style="paint-order:stroke fill markers"/>
  <rect transform="rotate(90)" x="4" y="-2" width="2" height="1" rx="0" ry="0" stroke-width="4" style="paint-order:stroke fill markers"/>
  <rect transform="rotate(90)" x="7" y="-2" width="2" height="1" rx="0" ry="0" stroke-width="4" style="paint-order:stroke fill markers"/>
  <rect transform="rotate(90)" x="10" y="-2" width="2" height="1" rx="0" ry="0" stroke-width="4" style="paint-order:stroke fill markers"/>
  <rect transform="rotate(90)" x="4" y="-15" width="2" height="1" rx="0" ry="0" stroke-width="4" style="paint-order:stroke fill markers"/>
  <rect transform="rotate(90)" x="7" y="-15" width="2" height="1" rx="0" ry="0" stroke-width="4" style="paint-order:stroke fill markers"/>
  <rect transform="rotate(90)" x="10" y="-15" width="2" height="1" rx="0" ry="0" stroke-width="4" style="paint-order:stroke fill markers"/>
  <path d="m5 4c-0.554 0-1 0.446-1 1v6c0 0.554 0.446 1 1 1h6c0.554 0 1-0.446 1-1v-6c0-0.554-0.446-1-1-1h-6zm0 1h6v6h-6v-6z" stroke-width="5.3333" style="paint-order:stroke fill markers"/>
  <rect x="5" y="5" width="6" height="6" rx="0" ry="0" opacity=".35" stroke-width="4" style="paint-order:stroke fill markers"/>
 </g>
</svg>

<svg xmlns="http://www.w3.org/2000/svg" width="16" height="16"><g fill="#dedede" stroke-linecap="round" stroke-linejoin="round"><path d="M2 1c-.554 0-1 .446-1 1v1h1V2h1V1H2zm11 0v1h1v1h1V2c0-.554-.446-1-1-1h-1zM1 13v1c0 .554.446 1 1 1h1v-1H2v-1H1zm13 0v1h-1v1h1c.554 0 1-.446 1-1v-1h-1z" style="paint-order:stroke fill markers"/><rect width="2" height="1" x="4" y="1" rx="0" ry="0" style="paint-order:stroke fill markers"/><rect width="2" height="1" x="7" y="1" rx="0" ry="0" style="paint-order:stroke fill markers"/><rect width="2" height="1" x="10" y="1" rx="0" ry="0" style="paint-order:stroke fill markers"/><rect width="2" height="1" x="4" y="14" rx="0" ry="0" style="paint-order:stroke fill markers"/><rect width="2" height="1" x="7" y="14" rx="0" ry="0" style="paint-order:stroke fill markers"/><rect width="2" height="1" x="10" y="14" rx="0" ry="0" style="paint-order:stroke fill markers"/><rect width="2" height="1" x="4" y="-2" rx="0" ry="0" style="paint-order:stroke fill markers" transform="rotate(90)"/><rect width="2" height="1" x="7" y="-2" rx="0" ry="0" style="paint-order:stroke fill markers" transform="rotate(90)"/><rect width="2" height="1" x="10" y="-2" rx="0" ry="0" style="paint-order:stroke fill markers" transform="rotate(90)"/><rect width="2" height="1" x="4" y="-15" rx="0" ry="0" style="paint-order:stroke fill markers" transform="rotate(90)"/><rect width="2" height="1" x="7" y="-15" rx="0" ry="0" style="paint-order:stroke fill markers" transform="rotate(90)"/><rect width="2" height="1" x="10" y="-15" rx="0" ry="0" style="paint-order:stroke fill markers" transform="rotate(90)"/><path d="M5 4c-.554 0-1 .446-1 1v6c0 .554.446 1 1 1h6c.554 0 1-.446 1-1V5c0-.554-.446-1-1-1H5zm0 1h6v6H5V5z" style="paint-order:stroke fill markers"/><rect width="6" height="6" x="5" y="5" opacity=".35" rx="0" ry="0" style="paint-order:stroke fill markers"/></g></svg>
